X: 1
T: the Sussex Carol
M: 6/8
L: 1/8
K: G
d \
|: "G"d2B "C"c2d | "Em"BAG "D7"A2F | "G"G2G "C"ABc | "D7"B2A "G"G3 :|
|| "D7"A3 A2G | ABc "G"dcB | "D7"A3- A3 \
|[M:9/8] "G"d3 "C"e3 "G"d3 |[M:6/8] "C"c2B "D7"AGA | "G"G3 z3 |]
